source/img/icon-twitter.svg

<svg version="1.0" id="Layer_1" xmlns="http://www.w3.org/2000/svg" xmlns:xlink="http://www.w3.org/1999/xlink" x="0px" y="0px" width="17.5px" height="14.663px" viewBox="0 0 17.5 14.663" enable-background="new 0 0 17.5 14.663" xml:space="preserve">
  <g id="W6EeEF_1_">
    <g>
      <path fill-rule="evenodd" clip-rule="evenodd" d="M11.283,0.153c1.736-0.484,3.074,0.264,3.685,1.15 c0.694-0.225,1.372-0.47,2.072-0.69c-0.004,0.841-0.538,1.478-0.883,1.728C16.861,2.506,17.5,1.86,17.5,1.86 c-0.175,0.977-1.035,1.746-1.611,1.977C15.65,10.429,12.617,14.793,5.507,14.66c-0.538,0,0.077,0-0.46,0 c-0.422,0-4.29-0.45-5.047-1.843c2.341,0.192,4.011-0.412,4.835-1.15c-0.989-0.293-2.761-0.464-3.07-2.881 c0.362,0.105,0.583,0.223,1.228,0.117C1.757,8.067,0.385,7.366,0.461,5.218c0.294,0.319,1.1,0.523,1.381,0.461 c-0.725-0.235-2.03-3.281-0.921-4.836C2.794,2.655,4.769,4.364,8.29,4.528C8.506,2.288,9.461,0.788,11.283,0.153z"/>
    </g>
  </g>
</svg>

<?xml version="1.0" encoding="UTF-8"?>
<svg width="18px" height="15px" viewBox="0 0 18 15" version="1.1" xmlns="http://www.w3.org/2000/svg" xmlns:xlink="http://www.w3.org/1999/xlink">
    <!-- Generator: Sketch 58 (84663) - https://sketch.com -->
    <title>icon-twitter</title>
    <desc>Created with Sketch.</desc>
    <g id="Page-1" stroke="none" stroke-width="1" fill="none" fill-rule="evenodd">
        <g id="icon-twitter" fill="#FFFFFF" fill-rule="nonzero">
            <path d="M11.283,0.153 C13.019,-0.331 14.357,0.417 14.968,1.303 C15.662,1.078 16.34,0.833 17.04,0.613 C17.036,1.454 16.502,2.091 16.157,2.341 C16.861,2.506 17.5,1.86 17.5,1.86 C17.325,2.837 16.465,3.606 15.889,3.837 C15.65,10.429 12.617,14.793 5.507,14.66 C4.969,14.66 5.584,14.66 5.047,14.66 C4.625,14.66 0.757,14.21 0,12.817 C2.341,13.009 4.011,12.405 4.835,11.667 C3.846,11.374 2.074,11.203 1.765,8.786 C2.127,8.891 2.348,9.009 2.993,8.903 C1.757,8.067 0.385,7.366 0.461,5.218 C0.755,5.537 1.561,5.741 1.842,5.679 C1.117,5.444 -0.188,2.398 0.921,0.843 C2.794,2.655 4.769,4.364 8.29,4.528 C8.506,2.288 9.461,0.788 11.283,0.153 Z" id="Path"></path>
        </g>
    </g>
</svg>
